icon-themes/sifr_svg/cmd/sc_behindobject.svg

<svg viewBox="0 0 16 16" xmlns="http://www.w3.org/2000/svg"><g fill="#555753"><path d="m1 16 3-3h11l-3 3zm7-4-3-2h2v-3h2v3h2zm-8-4v-1h1v1zm2 0v-1h1v1zm2 0v-1h1v1zm7 0v-1h1v1zm2 0v-1h1v1zm2 0v-1h1v1zm-15-2v-1h1v1zm15 0v-1h1v1zm-15-2v-1h1v1zm15 0v-1h1v1zm-15-2v-1h1v1zm2 0v-1h1v1zm2 0v-1h1v1zm2 0v-1h1v1zm3 0v-1h1v1zm2 0v-1h1v1zm2 0v-1h1v1zm2 0v-1h1v1z"/><path d="m12 6 2-3h-10l-2 3z" opacity=".35"/></g></svg>

<svg xmlns="http://www.w3.org/2000/svg" viewBox="0 0 16 16">
  <path
     style="fill:#555753"
     d="m 1,16 3,-3 h 11 l -3,3 z M 8,12 5,10 H 7 V 7 h 2 v 3 h 2 z M 0,8 V 7 H 1 V 8 Z M 2,8 V 7 H 3 V 8 Z M 4,8 V 7 h 1 v 1 z m 7,0 V 7 h 1 v 1 z m 2,0 V 7 h 1 v 1 z m 2,0 V 7 h 1 V 8 Z M 0,6 V 5 H 1 V 6 Z M 15,6 V 5 h 1 V 6 Z M 0,4 V 3 H 1 V 4 Z M 15,4 V 3 h 1 V 4 Z M 0,2 V 1 H 1 V 2 Z M 2,2 V 1 H 3 V 2 Z M 4,2 V 1 H 5 V 2 Z M 6,2 V 1 H 7 V 2 Z M 9,2 V 1 h 1 v 1 z m 2,0 V 1 h 1 v 1 z m 2,0 V 1 h 1 v 1 z m 2,0 V 1 h 1 v 1 z"
     />
  <path
     style="opacity:0.35;fill:#555753"
     d="M 12,6 14,3 H 4 L 2,6 Z"
     />
</svg>
